src/topics/icons/google-photos.svg

<svg height="256" preserveAspectRatio="xMidYMid" viewBox="0 0 256 256" width="256" xmlns="http://www.w3.org/2000/svg" xmlns:xlink="http://www.w3.org/1999/xlink"><defs><path id="a" d="m253.333333 128h-58.666666v-66.6666667l-62.106667-60.5333333c-.48-.50666667-1.146667-.8-1.893333-.8-1.466667 0-2.666667 1.2-2.666667 2.66666667v58.66666663h-66.6666667l-60.5333333 62.1066667c-.50666667.48-.8 1.146667-.8 1.893333 0 1.466667 1.2 2.666667 2.66666667 2.666667h58.66666663v66.666667l62.1066667 60.533333c.48.506667 1.146667.8 1.893333.8 1.466667 0 2.666667-1.2 2.666667-2.666667v-58.666666h66.666667l60.533333-62.106667c.506667-.48.8-1.146667.8-1.893333 0-1.466667-1.2-2.666667-2.666667-2.666667z"/><linearGradient id="b" x1="56.866845%" x2="46.904018%" y1="47.538904%" y2="57.776339%"><stop offset="0" stop-color="#e88c22"/><stop offset="1" stop-color="#fcbb29" stop-opacity="0"/></linearGradient><linearGradient id="c" x1="50%" x2="58.292594%" y1="40.546757%" y2="48.586661%"><stop offset="0" stop-color="#5e8235"/><stop offset="1" stop-color="#8cc251" stop-opacity="0"/></linearGradient><mask id="d" fill="#fff"><use fill="#fff" xlink:href="#a"/></mask></defs><use xlink:href="#a"/><g mask="url(#d)"><g transform="translate(0 60.333333)"><path d="m.8 63.1066667c-.50666667.48-.8 1.1466666-.8 1.8933333 0 1.4666667 1.2 2.6666667 2.66666667 2.6666667h125.33333333v-66.6666667h-66.6666667z" fill="#fcbb29"/><path d="m128 67.6666667v-66.6666667h-66.6666667z" fill="#fc9723"/><path d="m61.3333333 1-60.5333333 62.1066667c-.50666667.48-.8 1.1466666-.8 1.8933333 0 .24.08.4533333.13333333.6666667.13333334-.4533334.32-.9066667.64-1.2266667l60.55999997-62.10666667h66.6666667v-1.33333333z" fill="#fff" fill-opacity=".2"/><path d="m128 67.6666667v-1.3333334l-65.3333333-65.3333333h-1.3333334z" fill="#3e2723" fill-opacity=".1"/><path d="m119.966797 59.6425785-9.614909 4.1061198-54.2226562-57.32486984 5.2848307-5.53483073z" fill="url(#b)" opacity=".8"/></g></g><g mask="url(#d)"><g transform="translate(61.333333 128)"><path d="m62.1066667 127.2c.48.506667 1.1466666.8 1.8933333.8 1.4666667 0 2.6666667-1.2 2.6666667-2.666667v-125.333333h-66.6666667v66.6666667z" fill="#8cc251"/><path d="m0 0v66.6666667l66.6666667-66.6666667z" fill="#1d9a59"/><path d="m64 126.666667c-.7466667 0-1.4133333-.293334-1.8933333-.8l-61.44000003-59.866667-.66666667.6666667 62.1066667 60.5333333c.48.506667 1.1466666.8 1.8933333.8 1.4666667 0 2.6666667-1.2 2.6666667-2.666667v-1.333333c0 1.466667-1.2 2.666667-2.6666667 2.666667z" fill="#3e2723" fill-opacity=".1"/><path d="m59.0677087 8.97379557 2.2293281 5.19067393-55.32806267 58.3230793-5.26308185-5.1333834z" fill="url(#c)" opacity=".7"/><path d="m66.6666667 1.33333333h-1.3333334l-65.3333333 65.33333337v1.3333333z" opacity=".2"/></g></g><g mask="url(#d)"><g transform="translate(128 128)"><path d="m127.2 4.56c.506667-.48.8-1.14666667.8-1.89333333 0-1.46666667-1.2-2.66666667-2.666667-2.66666667h-125.333333v66.6666667h66.6666667z" fill="#4b87f1"/><path d="m0 0v66.6666667h66.6666667z" fill="#3367d6"/><path d="m66.6666667 66.6666667 60.5333333-62.1066667c.506667-.48.8-1.14666667.8-1.89333333 0-.24-.08-.45333334-.133333-.66666667-.133334.45333333-.32.90666667-.64 1.22666667l-60.5600003 62.10666663h-66.6666667v1.3333334z" fill="#263238" fill-opacity=".2"/><path d="m0 0v1.33333333l65.3333333 65.33333337h1.3333334z" fill="#263238" fill-opacity=".1"/><path d="m127.866667 3.33333333c.053333-.21333333.133333-.42666666.133333-.66666666 0-1.46666667-1.2-2.66666667-2.666667-2.66666667h-125.333333v1.33333333h125.333333c1.226667 0 2.24.85333334 2.533334 2z" fill="#fff" fill-opacity=".2"/></g></g><g mask="url(#d)"><g transform="translate(128)"><path d="m4.56.8c-.48-.50666667-1.14666667-.8-1.89333333-.8-1.46666667 0-2.66666667 1.2-2.66666667 2.66666667v125.33333333h66.6666667v-66.6666667z" fill="#d8443c"/><path d="m4.56.8c-.48-.50666667-1.14666667-.8-1.89333333-.8-1.46666667 0-2.66666667 1.2-2.66666667 2.66666667v1.33333333c0-1.46666667 1.2-2.66666667 2.66666667-2.66666667.74666666 0 1.41333333.29333334 1.89333333.8l60.7466667 59.22666667 1.36-.0266667z" fill="#fff" fill-opacity=".2"/><path d="m66.6666667 128v-66.6666667l-19.2163462 19.2163462-47.4503205 47.4503205z" fill="#ab1657"/><path d="m0 126.666667h1.33333333l65.33333337-65.3333337-1.36.0266667z" fill="#fff" opacity=".2"/><path d="m0 126.666667h66.666667v1.333333h-66.666667z" fill="#3e2723" fill-opacity=".1"/></g></g><path d="m120 120 8-18.666667 8 18.666667 18.666667 8-18.666667 8-8 18.666667-8-18.666667-18.666667-8z" fill="#f1f1f1" mask="url(#d)"/></svg>

<?xml version="1.0" encoding="UTF-8" standalone="no"?>
<svg width="256px" height="256px" viewBox="0 0 256 256" version="1.1" xmlns="http://www.w3.org/2000/svg" xmlns:xlink="http://www.w3.org/1999/xlink" preserveAspectRatio="xMidYMid">
    <defs>
        <path id="path-1" d="M253.333333,128 L194.666667,128 L194.666667,61.3333333 L132.56,0.8 C132.08,0.293333333 131.413333,0 130.666667,0 C129.2,0 128,1.2 128,2.66666667 L128,61.3333333 L61.3333333,61.3333333 L0.8,123.44 C0.293333333,123.92 0,124.586667 0,125.333333 C0,126.8 1.2,128 2.66666667,128 L61.3333333,128 L61.3333333,194.666667 L123.44,255.2 C123.92,255.706667 124.586667,256 125.333333,256 C126.8,256 128,254.8 128,253.333333 L128,194.666667 L194.666667,194.666667 L255.2,132.56 C255.706667,132.08 256,131.413333 256,130.666667 C256,129.2 254.8,128 253.333333,128 L253.333333,128 Z"></path>
        <linearGradient x1="56.8668445%" y1="47.5389037%" x2="46.9040177%" y2="57.7763393%" id="linearGradient-3">
            <stop stop-color="#E88C22" offset="0%"></stop>
            <stop stop-color="#FCBB29" stop-opacity="0" offset="100%"></stop>
        </linearGradient>
        <linearGradient x1="50%" y1="40.5467566%" x2="58.2925937%" y2="48.5866614%" id="linearGradient-4">
            <stop stop-color="#5E8235" offset="0%"></stop>
            <stop stop-color="#8CC251" stop-opacity="0" offset="100%"></stop>
        </linearGradient>
    </defs>
	<g>
		<mask id="mask-2" fill="white">
			<use xlink:href="#path-1"></use>
		</mask>
		<use fill="#000000" xlink:href="#path-1"></use>
		<g mask="url(#mask-2)">
			<g transform="translate(0.000000, 60.333333)">
				<path d="M0.8,63.1066667 C0.293333333,63.5866667 0,64.2533333 0,65 C0,66.4666667 1.2,67.6666667 2.66666667,67.6666667 L128,67.6666667 L128,1 L61.3333333,1 L0.8,63.1066667 L0.8,63.1066667 Z" fill="#FCBB29"></path>
				<path d="M128,67.6666667 L128,1 L61.3333333,1 L128,67.6666667 L128,67.6666667 Z" fill="#FC9723"></path>
				<path d="M61.3333333,1 L0.8,63.1066667 C0.293333333,63.5866667 0,64.2533333 0,65 C0,65.24 0.08,65.4533333 0.133333333,65.6666667 C0.266666667,65.2133333 0.453333333,64.76 0.773333333,64.44 L61.3333333,2.33333333 L128,2.33333333 L128,1 L61.3333333,1 L61.3333333,1 Z" fill-opacity="0.2" fill="#FFFFFF"></path>
				<path d="M128,67.6666667 L128,66.3333333 L62.6666667,1 L61.3333333,1 L128,67.6666667 L128,67.6666667 Z" fill-opacity="0.1" fill="#3E2723"></path>
				<path d="M119.966797,59.6425785 L110.351888,63.7486983 L56.1292318,6.42382846 L61.4140625,0.888997729 L119.966797,59.6425785 Z" opacity="0.799999952" fill="url(#linearGradient-3)"></path>
			</g>
		</g>
		<g mask="url(#mask-2)">
			<g transform="translate(61.333333, 128.000000)">
				<path d="M62.1066667,127.2 C62.5866667,127.706667 63.2533333,128 64,128 C65.4666667,128 66.6666667,126.8 66.6666667,125.333333 L66.6666667,0 L0,0 L0,66.6666667 L62.1066667,127.2 L62.1066667,127.2 Z" fill="#8CC251"></path>
				<path d="M0,0 L0,66.6666667 L66.6666667,0 L0,0 L0,0 Z" fill="#1D9A59"></path>
				<path d="M64,126.666667 C63.2533333,126.666667 62.5866667,126.373333 62.1066667,125.866667 L0.666666667,66 L0,66.6666667 L62.1066667,127.2 C62.5866667,127.706667 63.2533333,128 64,128 C65.4666667,128 66.6666667,126.8 66.6666667,125.333333 L66.6666667,124 C66.6666667,125.466667 65.4666667,126.666667 64,126.666667 L64,126.666667 L64,126.666667 Z" fill-opacity="0.1" fill="#3E2723"></path>
				<path d="M59.0677087,8.97379557 L61.2970368,14.1644695 L5.96897413,72.4875488 L0.70589228,67.3541654 L59.0677087,8.97379557 Z" opacity="0.699999988" fill="url(#linearGradient-4)"></path>
				<path d="M66.6666667,1.33333333 L65.3333333,1.33333333 L0,66.6666667 L0,68 L66.6666667,1.33333333 L66.6666667,1.33333333 Z" opacity="0.200000018" fill="#000000"></path>
			</g>
		</g>
		<g mask="url(#mask-2)">
			<g transform="translate(128.000000, 128.000000)">
				<path d="M127.2,4.56 C127.706667,4.08 128,3.41333333 128,2.66666667 C128,1.2 126.8,0 125.333333,0 L0,0 L0,66.6666667 L66.6666667,66.6666667 L127.2,4.56 L127.2,4.56 Z" fill="#4B87F1"></path>
				<path d="M0,0 L0,66.6666667 L66.6666667,66.6666667 L0,0 L0,0 Z" fill="#3367D6"></path>
				<path d="M66.6666667,66.6666667 L127.2,4.56 C127.706667,4.08 128,3.41333333 128,2.66666667 C128,2.42666667 127.92,2.21333333 127.866667,2 C127.733333,2.45333333 127.546667,2.90666667 127.226667,3.22666667 L66.6666667,65.3333333 L0,65.3333333 L0,66.6666667 L66.6666667,66.6666667 L66.6666667,66.6666667 Z" fill-opacity="0.2" fill="#263238"></path>
				<path d="M0,0 L0,1.33333333 L65.3333333,66.6666667 L66.6666667,66.6666667 L0,0 L0,0 Z" fill-opacity="0.1" fill="#263238"></path>
				<path d="M127.866667,3.33333333 C127.92,3.12 128,2.90666667 128,2.66666667 C128,1.2 126.8,0 125.333333,0 L0,0 L0,1.33333333 L125.333333,1.33333333 C126.56,1.33333333 127.573333,2.18666667 127.866667,3.33333333 L127.866667,3.33333333 L127.866667,3.33333333 Z" fill-opacity="0.2" fill="#FFFFFF"></path>
			</g>
		</g>
		<g mask="url(#mask-2)">
			<g transform="translate(128.000000, 0.000000)">
				<path d="M4.56,0.8 C4.08,0.293333333 3.41333333,0 2.66666667,0 C1.2,0 0,1.2 0,2.66666667 L0,128 L66.6666667,128 L66.6666667,61.3333333 L4.56,0.8 L4.56,0.8 Z" fill="#D8443C"></path>
				<path d="M4.56,0.8 C4.08,0.293333333 3.41333333,0 2.66666667,0 C1.2,0 0,1.2 0,2.66666667 L0,4 C0,2.53333333 1.2,1.33333333 2.66666667,1.33333333 C3.41333333,1.33333333 4.08,1.62666667 4.56,2.13333333 L65.3066667,61.36 L66.6666667,61.3333333 L4.56,0.8 L4.56,0.8 Z" fill-opacity="0.2" fill="#FFFFFF"></path>
				<path d="M66.6666667,128 L66.6666667,61.3333333 L47.4503205,80.5496795 L0,128 L66.6666667,128 L66.6666667,128 Z" fill="#AB1657"></path>
				<path d="M0,126.666667 L1.33333333,126.666667 L66.6666667,61.3333333 L65.3066667,61.36 L0,126.666667 L0,126.666667 Z" opacity="0.2" fill="#FFFFFF"></path>
				<rect fill-opacity="0.1" fill="#3E2723" x="0" y="126.666667" width="66.6666667" height="1.33333333"></rect>
			</g>
		</g>
		<path d="M120,120 L128,101.333333 L136,120 L154.666667,128 L136,136 L128,154.666667 L120,136 L101.333333,128 L120,120 L120,120 Z" fill="#F1F1F1" mask="url(#mask-2)"></path>
	</g>
</svg>
